packages/icons/raw/imported/MediaVideo.svg

<svg width="32" height="32" viewBox="0 0 32 32" fill="none" xmlns="http://www.w3.org/2000/svg">
<path d="M6.5 10.5H6H6.5ZM6.5 21.5H6H6.5ZM21.5 25.5V25V25.5ZM10.5 25.5V26V25.5ZM25.5 10.5H25H25.5ZM25.5 21.5H26H25.5ZM21.5 6.50002L21.5 7.00002L21.5 6.50002ZM10.5 6.5L10.5 7L10.5 6.5ZM11.1154 25.1829C11.1154 25.459 11.3392 25.6829 11.6154 25.6829C11.8915 25.6829 12.1154 25.459 12.1154 25.1829L11.1154 25.1829ZM12.1154 7.23076C12.1154 6.95462 11.8916 6.73076 11.6154 6.73076C11.3393 6.73076 11.1154 6.95462 11.1154 7.23076L12.1154 7.23076ZM19.8846 25.1829C19.8846 25.459 20.1085 25.6829 20.3846 25.6829C20.6608 25.6829 20.8846 25.459 20.8846 25.1829L19.8846 25.1829ZM20.8847 7.23076C20.8847 6.95462 20.6608 6.73076 20.3847 6.73076C20.1085 6.73076 19.8847 6.95462 19.8847 7.23076L20.8847 7.23076ZM11.6154 20.1538C11.8915 20.1538 12.1154 19.93 12.1154 19.6538C12.1154 19.3777 11.8915 19.1538 11.6154 19.1538V20.1538ZM6.5 19.1538C6.22386 19.1538 6 19.3777 6 19.6538C6 19.93 6.22386 20.1538 6.5 20.1538V19.1538ZM11.6154 12.8461C11.8915 12.8461 12.1154 12.6223 12.1154 12.3461C12.1154 12.07 11.8915 11.8461 11.6154 11.8461V12.8461ZM6.5 11.8461C6.22386 11.8461 6 12.07 6 12.3461C6 12.6223 6.22386 12.8461 6.5 12.8461V11.8461ZM24.7692 20.1538C25.0454 20.1538 25.2692 19.93 25.2692 19.6538C25.2692 19.3777 25.0454 19.1538 24.7692 19.1538V20.1538ZM20.3846 19.1538C20.1085 19.1538 19.8846 19.3777 19.8846 19.6538C19.8846 19.93 20.1085 20.1538 20.3846 20.1538V19.1538ZM24.7692 12.8461C25.0454 12.8461 25.2692 12.6223 25.2692 12.3461C25.2692 12.07 25.0454 11.8461 24.7692 11.8461V12.8461ZM20.3846 11.8461C20.1085 11.8461 19.8846 12.07 19.8846 12.3461C19.8846 12.6223 20.1085 12.8461 20.3846 12.8461V11.8461ZM6 10.5L6 21.5H7L7 10.5H6ZM21.5 25L10.5 25V26L21.5 26V25ZM25 10.5V21.5H26V10.5H25ZM21.5 6.00002L10.5 6L10.5 7L21.5 7.00002L21.5 6.00002ZM26 10.5C26 8.01475 23.9853 6.00003 21.5 6.00002L21.5 7.00002C23.433 7.00003 25 8.56703 25 10.5H26ZM7 10.5C7 8.567 8.56701 7 10.5 7L10.5 6C8.01473 5.99999 6 8.01471 6 10.5H7ZM6 21.5C6 23.9853 8.01472 26 10.5 26V25C8.567 25 7 23.433 7 21.5H6ZM21.5 26C23.9853 26 26 23.9853 26 21.5H25C25 23.433 23.433 25 21.5 25V26ZM12.1154 25.1829L12.1154 7.23076L11.1154 7.23076L11.1154 25.1829L12.1154 25.1829ZM20.8846 25.1829L20.8847 7.23076L19.8847 7.23076L19.8846 25.1829L20.8846 25.1829ZM11.6154 19.1538H6.5V20.1538H11.6154V19.1538ZM11.6154 11.8461H6.5V12.8461H11.6154V11.8461ZM24.7692 19.1538H20.3846V20.1538H24.7692V19.1538ZM24.7692 11.8461H20.3846V12.8461H24.7692V11.8461Z" fill="black"/>
</svg>

<svg width="32" height="32" fill="none" xmlns="http://www.w3.org/2000/svg"><path d="M6.5 10.5H6h.5Zm0 11H6h.5Zm15 4V25v.5Zm-11 0v.5-.5Zm15-15H25h.5Zm0 11h.5-.5Zm-4-15V7v-.5Zm-11 0V7v-.5Zm.615 18.683a.5.5 0 1 0 1 0h-1Zm1-17.952a.5.5 0 1 0-1 0h1Zm7.77 17.952a.5.5 0 0 0 1 0h-1Zm1-17.952a.5.5 0 0 0-1 0h1Zm-9.27 12.923a.5.5 0 1 0 0-1v1Zm-5.115-1a.5.5 0 0 0 0 1v-1Zm5.115-6.308a.5.5 0 1 0 0-1v1Zm-5.115-1a.5.5 0 0 0 0 1v-1Zm18.27 8.308a.5.5 0 1 0 0-1v1Zm-4.385-1a.5.5 0 0 0 0 1v-1Zm4.384-6.308a.5.5 0 1 0 0-1v1Zm-4.384-1a.5.5 0 0 0 0 1v-1ZM6 10.5v11h1v-11H6ZM21.5 25h-11v1h11v-1ZM25 10.5v11h1v-11h-1ZM21.5 6h-11v1h11V6Zm4.5 4.5A4.5 4.5 0 0 0 21.5 6v1a3.5 3.5 0 0 1 3.5 3.5h1Zm-19 0A3.5 3.5 0 0 1 10.5 7V6A4.5 4.5 0 0 0 6 10.5h1Zm-1 11a4.5 4.5 0 0 0 4.5 4.5v-1A3.5 3.5 0 0 1 7 21.5H6ZM21.5 26a4.5 4.5 0 0 0 4.5-4.5h-1a3.5 3.5 0 0 1-3.5 3.5v1Zm-9.385-.817V7.23h-1v17.952h1Zm8.77 0V7.23h-1v17.952h1Zm-9.27-6.03H6.5v1h5.115v-1Zm0-7.307H6.5v1h5.115v-1Zm13.154 7.308h-4.384v1h4.384v-1Zm0-7.308h-4.384v1h4.384v-1Z" fill="#000"/></svg>
